public/images/hashed/e7e1788430d229f86edf962c99e3073c.svg

<?xml version="1.0" encoding="UTF-8"?>
<svg width="80px" height="80px" viewBox="0 0 80 80" version="1.1" xmlns="http://www.w3.org/2000/svg" xmlns:xlink="http://www.w3.org/1999/xlink">
    <!-- Generator: Sketch 64 (93537) - https://sketch.com -->
    <title>Icon-Architecture/64/Arch_AWS-Simple-Queue-Service_64</title>
    <desc>Created with Sketch.</desc>
    <defs>
        <linearGradient x1="0%" y1="100%" x2="100%" y2="0%" id="linearGradient-1">
            <stop stop-color="#B0084D" offset="0%"></stop>
            <stop stop-color="#FF4F8B" offset="100%"></stop>
        </linearGradient>
    </defs>
    <g id="Icon-Architecture/64/Arch_AWS-Simple-Queue-Service_64" stroke="none" stroke-width="1" fill="none" fill-rule="evenodd">
        <g id="Icon-Architecture-BG/64/Application-Integration" fill="url(#linearGradient-1)">
            <rect id="Rectangle" x="0" y="0" width="80" height="80"></rect>
        </g>
        <path d="M28.7169966,43.6876756 L31.7189265,40.721826 C31.9070474,40.5359011 32.0131156,40.2833614 32.0141233,40.019885 C32.0151169,39.7564086 31.9100493,39.5028747 31.722929,39.3159556 L28.7209992,36.3163014 L27.3020871,37.7181948 L28.5899149,39.0057494 L24.0089701,39.0057494 L24.0089701,40.9942506 L28.6059252,40.9942506 L27.3060896,42.2778282 L28.7169966,43.6876756 Z M51.627725,43.7781524 L55.630298,40.793412 C55.8804589,40.6054986 56.0295547,40.3112004 56.0295547,39.9990057 C56.0295547,39.6858168 55.8804589,39.3905244 55.6292974,39.202611 L51.6267243,36.2218476 L50.4259524,37.8126486 L52.0269816,39.0057494 L48.0244085,39.0057494 L48.0244085,40.9942506 L52.025981,40.9942506 L50.4249518,42.1873514 L51.627725,43.7781524 Z M35.2081695,40 C35.2081695,42.1107941 34.8429347,44.1012839 34.160496,45.8332685 C35.9606533,45.14127 37.9909585,44.7952708 40.0192624,44.7952708 C42.0475663,44.7952708 44.0778715,45.14127 45.8770281,45.8332685 C45.19559,44.1012839 44.8303552,42.1107941 44.8303552,40 C44.8303552,37.8892059 45.19559,35.8997104 45.8770281,34.1667315 C42.2777142,35.5497341 37.7608105,35.5497341 34.160496,34.1667315 C34.8429347,35.8997104 35.2081695,37.8892059 35.2081695,40 L35.2081695,40 Z M30.3060182,49.6511909 C30.1108927,49.4573121 30.0128297,49.2027839 30.0128297,48.9482557 C30.0128297,48.6937276 30.1108927,48.4391994 30.3060182,48.2453205 C32.1221857,46.4407556 33.206883,43.3575844 33.206883,40 C33.206883,36.6424156 32.1221857,33.5592444 30.3060182,31.7546795 C30.1108927,31.5608006 30.0128297,31.3062724 30.0128297,31.0517443 C30.0128297,30.7972161 30.1108927,30.5426879 30.3060182,30.3488091 C30.6972697,29.9600571 31.3296762,29.9600571 31.7209277,30.3488091 C35.5984204,34.2015303 44.4401044,34.2015303 48.317597,30.3488091 C48.7088485,29.9600571 49.3412551,29.9600571 49.7325066,30.3488091 C49.927632,30.5426879 50.0256951,30.7972161 50.0256951,31.0517443 C50.0256951,31.3062724 49.927632,31.5608006 49.7325066,31.7546795 C47.9163391,33.5592444 46.8316418,36.6424156 46.8316418,40 C46.8316418,43.3575844 47.9163391,46.4407556 49.7325066,48.2453205 C49.927632,48.4391994 50.0256951,48.6937276 50.0256951,48.9482557 C50.0256951,49.2027839 49.927632,49.4573121 49.7325066,49.6511909 C49.5373812,49.8450698 49.2812165,49.9425064 49.0250518,49.9425064 C48.7688871,49.9425064 48.5127225,49.8450698 48.317597,49.6511909 C44.4401044,45.7984697 35.5984204,45.7984697 31.7209277,49.6511909 C31.3296762,50.0399429 30.6972697,50.0399429 30.3060182,49.6511909 L30.3060182,49.6511909 Z M66.0009649,40.0049713 C66.0009649,39.0783297 65.6377314,38.2073661 64.9783075,37.5521549 C64.2978701,36.8750702 63.403295,36.5380193 62.5097205,36.5380193 C61.6161461,36.5380193 60.721571,36.8750702 60.0411336,37.5521549 C58.6792581,38.9043358 58.6792581,41.1046125 60.0411336,42.4577876 C61.4020084,43.8099684 63.6154313,43.8109627 64.9783075,42.4577876 C65.6377314,41.8025764 66.0009649,40.9316128 66.0009649,40.0049713 L66.0009649,40.0049713 Z M66.3932171,43.863658 C65.3225288,44.9275062 63.916625,45.4594303 62.5097205,45.4594303 C61.1028161,45.4594303 59.6969123,44.9275062 58.626224,43.863658 C56.4838468,41.7359616 56.4838468,38.2739809 58.626224,36.1462845 C60.7686012,34.0165997 64.2528411,34.0185882 66.3932171,36.1462845 C68.5355943,38.2739809 68.5355943,41.7359616 66.3932171,43.863658 L66.3932171,43.863658 Z M20.9800229,40.027839 C20.9800229,39.1011974 20.6167894,38.2302339 19.9573654,37.5750227 C19.2979415,36.9198115 18.421378,36.5588985 17.4887785,36.5588985 C16.5571796,36.5588985 15.6806161,36.9198115 15.0201916,37.5750227 C14.3607676,38.2302339 13.9985348,39.1011974 13.9985348,40.027839 C13.9985348,40.9534864 14.3607676,41.8244499 15.0201916,42.4806553 C16.34004,43.7900834 18.6385176,43.7900834 19.9573654,42.4806553 C20.6167894,41.8244499 20.9800229,40.9534864 20.9800229,40.027839 L20.9800229,40.027839 Z M21.372275,43.8865257 C20.3015867,44.9503739 18.8956829,45.482298 17.4887785,45.482298 C16.0828747,45.482298 14.6769709,44.9503739 13.605282,43.8865257 C11.464906,41.7588294 11.464906,38.2968487 13.605282,36.1691523 C15.7476592,34.0414559 19.2308984,34.0414559 21.372275,36.1691523 C23.5136516,38.2968487 23.5136516,41.7588294 21.372275,43.8865257 L21.372275,43.8865257 Z M54.8958259,54.856093 C50.901258,58.8261358 45.5888428,61.0114987 39.9392109,61.0114987 C34.2875777,61.0114987 28.9761632,58.8261358 24.9815953,54.856093 C22.241834,52.134829 20.7338646,48.8826352 19.9513616,46.6346345 L18.0601458,47.2848744 C18.9116932,49.730731 20.5577514,53.273246 23.5666857,56.2619634 C27.9394968,60.607833 33.7532342,63 39.9392109,63 C46.124187,63 51.9379244,60.607833 56.3107355,56.2619634 C58.8373597,53.7534691 60.8496533,50.563913 61.9793796,47.2818917 L60.0861625,46.6376173 C59.0534987,49.6382657 57.2103138,52.5573856 54.8958259,54.856093 L54.8958259,54.856093 Z M19.9503609,33.3663597 L18.0611465,32.7141313 C19.2719248,29.2501621 21.229183,26.0606061 23.5726896,23.7330653 C27.9434994,19.3911728 33.7552355,17 39.9392109,17 C46.1231863,17 51.9349225,19.3911728 56.3047316,23.7330653 C58.7713173,26.1838931 60.8396469,29.4569662 61.9773783,32.7141313 L60.0881638,33.3663597 C59.0444929,30.3836078 57.1502752,27.3849479 54.889822,25.1389357 C50.898256,21.1718757 45.5878422,18.9885013 39.9392109,18.9885013 C34.289579,18.9885013 28.9801658,21.1718757 24.9875992,25.1389357 C22.8542277,27.2596723 21.0650775,30.181775 19.9503609,33.3663597 L19.9503609,33.3663597 Z" id="AWS-Simple-Queue-Service_Icon_64_Squid" fill="#FFFFFF"></path>
    </g>
</svg>

<svg xmlns="http://www.w3.org/2000/svg" width="80" height="80"><defs><linearGradient id="a" x1="0%" x2="100%" y1="100%" y2="0%"><stop offset="0%" stop-color="#B0084D"/><stop offset="100%" stop-color="#FF4F8B"/></linearGradient></defs><g fill="none" fill-rule="evenodd"><path fill="url(#a)" d="M0 0h80v80H0z"/><path fill="#FFF" d="m28.717 43.688 3.002-2.966a.992.992 0 0 0 .004-1.406l-3.002-3-1.419 1.402 1.288 1.288h-4.581v1.988h4.597l-1.3 1.284 1.411 1.41Zm22.91.09 4.003-2.985c.25-.188.4-.482.4-.794a.996.996 0 0 0-.4-.796l-4.003-2.981-1.201 1.59 1.601 1.194h-4.003v1.988h4.002l-1.601 1.193 1.203 1.591ZM35.209 40c0 2.11-.365 4.101-1.048 5.833 1.8-.692 3.831-1.038 5.86-1.038 2.028 0 4.058.346 5.857 1.038-.681-1.732-1.047-3.722-1.047-5.833 0-2.11.366-4.1 1.047-5.833-3.6 1.383-8.116 1.383-11.717 0 .683 1.733 1.048 3.722 1.048 5.833Zm-4.902 9.651a.988.988 0 0 1 0-1.406c1.816-1.804 2.9-4.887 2.9-8.245 0-3.358-1.084-6.44-2.9-8.245a.988.988 0 0 1 0-1.406 1.004 1.004 0 0 1 1.415 0c3.877 3.853 12.72 3.853 16.597 0a1.004 1.004 0 0 1 1.415 0 .988.988 0 0 1 0 1.406c-1.817 1.804-2.901 4.887-2.901 8.245 0 3.358 1.084 6.44 2.9 8.245a.988.988 0 0 1 0 1.406 1.001 1.001 0 0 1-1.414 0c-3.878-3.853-12.72-3.853-16.597 0a1.004 1.004 0 0 1-1.415 0Zm35.695-9.646c0-.927-.363-1.798-1.023-2.453a3.488 3.488 0 0 0-2.468-1.014c-.894 0-1.788.337-2.469 1.014a3.456 3.456 0 0 0 0 4.906 3.51 3.51 0 0 0 4.937 0 3.435 3.435 0 0 0 1.023-2.453Zm.392 3.859a5.492 5.492 0 0 1-3.883 1.595 5.492 5.492 0 0 1-3.884-1.595 5.437 5.437 0 0 1 0-7.718 5.522 5.522 0 0 1 7.767 0 5.437 5.437 0 0 1 0 7.718ZM20.98 40.028c0-.927-.363-1.798-1.023-2.453a3.48 3.48 0 0 0-2.468-1.016c-.932 0-1.808.36-2.469 1.016A3.434 3.434 0 0 0 14 40.028c0 .925.362 1.796 1.021 2.453 1.32 1.31 3.619 1.31 4.937 0a3.438 3.438 0 0 0 1.023-2.453Zm.392 3.859a5.492 5.492 0 0 1-3.883 1.595 5.496 5.496 0 0 1-3.884-1.595 5.44 5.44 0 0 1 0-7.718c2.143-2.128 5.626-2.128 7.767 0a5.438 5.438 0 0 1 0 7.718Zm33.524 10.97c-3.995 3.97-9.307 6.154-14.957 6.154-5.651 0-10.963-2.185-14.957-6.155-2.74-2.721-4.248-5.973-5.03-8.221l-1.892.65c.852 2.446 2.498 5.988 5.507 8.977C27.939 60.608 33.753 63 39.939 63c6.185 0 11.999-2.392 16.372-6.738 2.526-2.509 4.539-5.698 5.668-8.98l-1.893-.644c-1.033 3-2.876 5.92-5.19 8.218ZM19.95 33.366l-1.889-.653c1.21-3.464 3.168-6.653 5.512-8.98C27.943 19.39 33.755 17 39.939 17c6.184 0 11.996 2.391 16.366 6.733 2.466 2.45 4.535 5.724 5.672 8.981l-1.889.652c-1.044-2.982-2.938-5.981-5.198-8.227-3.992-3.967-9.302-6.15-14.95-6.15-5.65 0-10.96 2.183-14.952 6.15-2.134 2.12-3.923 5.043-5.038 8.227Z"/></g></svg>
